X: 625
T: Guanggunr kuqi
%%abc-version 2.0
%%abcx-abcm2ps-target-version 5.9.1 (29 Sep 2008)
%%abc-creator hum2abc beta
%%abcx-conversion-date 2013/10/02 07:52:30
%%abc-edited-by Helmut Schaffrath
%%humdrum-veritas 4149588260
%%humdrum-veritas-data 4082844000
%%continueall 1
%%barnumbers 0
L: 1/8
M: 2/4
K: F
c2d c [I:setbarnb 1]| 
A3c | 
d f A c | 
G4 | 
c2d c | 
A2c2 | 
d c A c | 
G4 | 
G2c2 | 
c2d2 | 
c2G2 | 
A3G | 
F2A2 | 
G A F D | 
C4 | 
A3G | 
F3A | 
G3E | 
D4 | 
F F G F | 
D FC2 |]  



